X: 20
M: 4/4
L: 1/8
K: F
|: "F"F2fd "Cm"c2Ac | "Gm"BAGF "C7"FEDC | "F"F2FG "Dm"AGFA | "G"G=BdB "C7"c_BAG |
"F"F2fd "Cm"c2Ac | "Gm"BAGF "C7"FEDC | "F"F2FG "Dm"AGFA |1 "G/C7"GBAG "F"F2AG :|2 "G/C7"GBAG "F"F3F ||
|: "Bb"DEFD "A/F"C2C2 | "Bb"CDEF "F7"A2A2 | "Bb"DEFD "A/F"C2A2 | "G"G=BdB "E/C7"c_BAG |
"F"F2fd "Cm"c2Ac | "Gm"BAGF "C7"FEDC | "F"F2FG "Dm"AGFA |1 "G/C7"GBAG "F"F3F :|2 "G/C7"GBAG "F"F2F2 |]


